X:1
T:Christ Arose!
T:Text: Robert Lowry (1826-1899) Tune: Robert Lowry (1826-1899)
T:65 65 Refrain CHRIST AROSE www.hymnary.org/text/low_in_the_grave_he_lay_jesus_my_savior
T:Christ Arose!
T:This hymn is in the public domain.  You may freely use this score for personal and congregational worship.  If you reproduce the score, please credit Hymnary.org as the source. 
T:This hymn is in the public domain.  You may freely use this score for personal and congregational worship.  If you reproduce the score, please credit Hymnary.org as the source. 
Z:This hymn is in the public domain.  You may freely use this score for personal and congregational worship.  If you reproduce the score, please credit Hymnary.org as the source.
%%score ( 1 2 ) ( 3 4 )
L:1/8
M:4/4
K:Bb
V:1 treble nm="Piano" snm="Pno."
V:2 treble 
V:3 bass nm="Piano" snm="Pno."
V:4 bass 
V:1
 [DF]4 [DF]2 [EG]2 | [EG]2 [DF]2 [DF]4 | [CF]4 [CE]2 [EG]2 | [EG]4 [DF]4 | [EG]4 [FA]2 [GB]2 | %5
w: 3~Death can- not|keep his prey|Je- sus my|Sa- vior,|he tore the|
w: 1~Low in the|grave he lay|Je- sus my|Sa- vior,|wait- ing the|
w: 2~Vain- ly they|watch his bed|Je- sus my|Sa- vior,|vain- ly they|
 [FB]2 [DF]2 [DF]4 | [DG]4 [CF]2 [B,=E]2 | [A,F]8 ||"^Refrain" B,2 B,>B, D2 F>F | [DB]6 [DB]>[Ec] | %10
w: bars a- way|Je- sus my|Lord|Up from the grave he a-|rose, with a|
w: com- ing day|Je- sus my|Lord!|||
w: seal the dead|Je- sus my|Lord!|||
 [Fd]2 [FB]2 [Gc][GB][FA][EG] | [DF]6 [CA]>[DB] | [Ec]2 [Ec]2 [Ec][DB][Ec][Fd] | %13
w: migh- ty tri- umph o'er his|foes; he a-|rose a vic- tor from the|
w: |||
w: |||
 [DB]2 [EG]2 [DF]2 [DF][DF] | [EG]2 [EG]2 [=EG][Ec][Ec][GB] | A2 [DB]2 [Fc]2 F>F | %16
w: dark do- main, and he|lives for- e- ver with his|saints to reign. He a-|
w: |||
w: |||
 [Fd]6 [Ec]>[DB] | [Ge]6 [Fd]>[Ec] | [DB]2 [DF]2 [Fd]2 [Ec]2 | [DB]8 |] %20
w: rose! He a-|rose! Hal- le-|lu- jah! Christ a-|rose!|
w: ||||
w: ||||
V:2
 x8 | x8 | x8 | x8 | x8 | x8 | x8 | x8 || B,2 B,>B, D2 F>F | x8 | x8 | x8 | x8 | x8 | x8 | %15
 (F_E) x2 x2 F>F | x8 | x8 | x8 | x8 |] %20
V:3
 [B,,B,]4 [B,,B,]2 [B,,B,]2 | [B,,B,]2 [B,,B,]2 [B,,B,]4 | [F,,A,]4 [F,,A,]2 [F,,A,]2 | %3
w: |||
 [B,,B,]4 [B,,B,]4 | [E,B,]4 [E,B,]2 [E,B,]2 | [D,B,]2 [B,,B,]2 [B,,B,]4 | %6
w: |||
 [G,,B,]4 [C,A,]2 [C,G,]2 | [F,,F,]8 || B,,2 B,,>B,, D,2 F,>F, | %9
w: |||
 [B,,F,]2 [B,,F,]>[B,,F,] [B,,F,]2 [B,,B,]>[B,,B,] | [B,,B,]2 [D,B,]2 [E,B,][E,B,][E,B,][E,B,] | %11
w: ||
 [B,,B,]2 [B,,B,]>[B,,B,] [B,,B,]2 F,>F, | F,2 F,2 F,F,F,F, | %13
w: * he a- rose! * *||
 [G,B,]2 [E,B,]2 [B,,B,]2 [B,,B,][B,,B,] | [E,B,]2 [E,B,]2 [C,B,][C,G,][C,G,][C,C] | %15
w: ||
 [F,C]2 [G,B,]2 [F,A,]2 z2 | z2 B,>B, B,2 z2 | z2 [E,B,]>[E,B,] [E,B,]2 [E,B,]>[E,G,] | %18
w: |he a- rose!|he a- rose! * *|
 F,2 [F,B,]2 [F,B,]2 [F,A,]2 | [B,,B,]8 |] %20
w: ||
V:4
 x8 | x8 | x8 | x8 | x8 | x8 | x8 | x8 || B,,2 B,,>B,, D,2 F,>F, | x8 | x8 | x4 x2 F,>F, | %12
 F,2 F,2 F,F,F,F, | x8 | x8 | x8 | x2 B,>B, B,2 x2 | x8 | F,2 x6 | x8 |] %20

